X:122
T:Cherkessia Kfula as written
K:G
L:1/4
M:2/2
P:A
"G"[Bd][Bd]2[Ac] |[GB][FA][DG]2 | "C"[Gc][Gc]2[Bd] |[ce]2[ce]2 | "G"[Bd][Bd]2[Ac] | "G"[GB]2[FA]2 | "D"[Ad]4 | "D7"[Ad]4 |\
"G"[Bd][Bd]2[Ac] |[GB][FA][DG]2 | "C"[Gc][Gc]2[Bd] |[ce]2[ce]2 | "G"[Bd][Bd]2[Ac] | "D"[GB]2[FA]2 | "G"[GG]4 | "G7"[GG]4 |
P:B
"C"[ce][ce]2[Bd] |[Ac][Bd][ce]2 | "G"[Bd][Bd]2[Ac] |[GB][Ac][Bd]2 | "D"[Ac][Ac]2[GB] | "D"[FA]2[GB][Ac] | "G"[Bd]4 | "G7"[Bd]4 |\
"C"[ce][ce]2[Bd] |[Ac][Bd][ce]2 | "G"[Bd][Bd]2[Ac] |[GB][Ac][Bd]2 | "D"[Ac][Ac]2[GB] | "D7"[FA]2[GB][FA] | "G"[GG]4 |[GG]4 |]

